www/assets/icons/view_comfy_alt.svg

<svg xmlns="http://www.w3.org/2000/svg" width="24" height="24" viewBox="0 0 24 24" fill='currentColor'><path d="M20 4H4c-1.1 0-2 .9-2 2v12c0 1.1.9 2 2 2h16c1.1 0 2-.9 2-2V6c0-1.1-.9-2-2-2m-9 13H7v-4h4zm0-6H7V7h4zm6 6h-4v-4h4zm0-6h-4V7h4z"/></svg>

<svg width="24" height="24" viewBox="0 0 24 24" xmlns="http://www.w3.org/2000/svg" fill='currentColor'><path d="M20 4H4C2.9 4 2 4.9 2 6V18C2 19.1 2.9 20 4 20H20C21.1 20 22 19.1 22 18V6C22 4.9 21.1 4 20 4ZM11 17H7V13H11V17ZM11 11H7V7H11V11ZM17 17H13V13H17V17ZM17 11H13V7H17V11Z"/></svg>
